X:1
T:O Sing His Praise
T:O Sing His Praise
T:Grant Colfax Tullar
T:Eliza Edmunds Hewitt, 1903
T:Public Domain Courtesy of the Cyber Hymnal™
T:Public Domain Courtesy of the Cyber Hymnal™
C:Grant Colfax Tullar
Z:Public Domain
Z:Courtesy of the Cyber Hymnal™
%%score ( 1 2 ) ( 3 4 )
L:1/8
Q:1/4=105
M:4/4
K:C
V:1 treble 
V:2 treble 
V:3 bass 
V:4 bass 
V:1
 [EG]2 [^D^F]>[=FA] [EG]2 [Ec]2 | [Fd]>[Ac] [GB]>[FA] [EG]4 | [B,D]>[CE] [DF]>[EG] [FB]2 [FA]2 | %3
w: 1.~O sing His praise, Who|gov- erns earth and sky;|Sing His ten- der mer- cy,|
w: 2.~O sing His praise, with|gra- ti- tude sin- cere;|Tok- ens of His good- ness|
w: 3.~O sing His praise; the|thank- ful notes pro- long;|Let our lives re- ech- o|
 [^Fd]2 [Fc]2 (B2 A2) | [EG]2 [^D^F]>[DA] [EG]2 [Ec]2 | [Fd]>[Fd] [Ac]>[Ad] [^Ge]4 | %6
w: ev- er nigh; *|Sing of the love that|ran- soms man from sin,|
w: thro’ the year; *|Sing of the care pro-|vid- ing for our needs,|
w: ev- ery song; *|Let heart and hand the|hap- py strain re- peat,|
 [Ad]>[Ac] [GB]>[FA] [EG]2 [Ec]2 | [Ec]2 [DB]2 !fermata![Ec]3/2 ||"^Refrain" [EG]<[^D^F] [EG]/ | %9
w: Love that con- quered death, our|souls to win.||
w: Thro’ the strang- er- land, He|gent- ly leads.|Sweet prais- es|
w: Lay- ing lov- ing ser- vice|at His feet.||
 [DF]4- [DF]>[EG] [^D^F]>[EG] | [CE]4- [CE]>[Ec] [DB]>[Ec] | [Ge]2 [Fd]2 [FA]2 [FB]2 | %12
w: |||
w: bring * the heav’n- ly|King; * To ev- ery|na- tion tell His|
w: |||
 [Ed]>[Ec] [GB]>[FA] [EG]>[EG] [^D^F]>[EG] | [DF]4- [DF]>[Fd] [E^c]>[Fd] | [Ge]6 [Ge]2 | %15
w: |||
w: ev- er- last- ing love; Sweet prais- es|bring * the heav’n- ly|King; He|
w: |||
 [^Ge]4 [Bd]2 [Ac]>[GB] | [Ac]6 [Gc]2 | [^Fd]4 [Ac]2 [GB]>[FA] | [GB]6 [FG]2 | %19
w: ||||
w: guides us in His|ways, He|sends the sun- ny|days; And|
w: ||||
 [EG]4 [Ge]2 [Fd]>[Ec] | [Fd]2 [Fc]2 [GB]2 [FA]2 | [EG] [Gc]3 [Fc]2 [FB]2 | [Ec]8 |] %23
w: ||||
w: ev- ery cloud His|will o- beys With|bless- ing from a-|bove.|
w: ||||
V:2
 x8 | x8 | x8 | x4 =F4 | x8 | x8 | x8 | x11/2 || x5/2 | x8 | x8 | x8 | x8 | x8 | x8 | x8 | x8 | %17
 x8 | x8 | x8 | x8 | x8 | x8 |] %23
V:3
 [C,C]2 [C,A,]>[C,B,] [C,C]2 [C,G,]2 | [F,A,]>[F,A,] [F,B,]>[F,C] [C,C]4 | %2
 G,>G, G,>G, [G,D]2 [G,D]2 | [D,D]2 [D,D]2 (D2 B,2) | [C,C]2 [C,A,]>[C,^F,] [C,G,]2 [C,G,]2 | %5
 [F,A,]>[F,A,] [F,C]>[F,A,] [E,B,]4 | [F,A,]>[F,A,] [F,B,]>[F,C] [C,C]2 [C,G,]2 | %7
 G,2 G,2 !fermata![C,G,]3/2 || z/ z2 | z3/2 ([G,B,]<[G,B,][G,B,]/ [G,B,]2) z2 | %10
 z3/2 ([C,G,]<[C,G,][C,G,]/ [C,G,]2) z2 | z3/2 [G,C]/ [G,B,]>[G,B,] [G,D]>[G,D] G,>G, | %12
 [C,G,]>[C,G,] [C,A,]>[C,B,] [C,C]2 z2 | z3/2 ([G,B,]<[G,B,][G,B,]/ [G,B,]2) z2 | %14
 z3/2 ([C,C]<[C,C][C,C]/ [C,C]2) [C,C]2 | ([E,B,]2 [E,B,]2) [E,B,]2 [E,E]2 | %16
 ([A,E]>[A,E][A,E]>[A,E] [A,E]2) [A,E]2 | ([D,D]2 [D,A,]2) [D,A,]2 [D,D]2 | %18
 ([G,D]>[G,D][G,D]>[G,D] [G,D]2) [G,B,]2 | ([C,C]2 [C,C]2) [C,C]2 [C,G,]2 | %20
 [F,A,]2 [F,A,]2 [F,B,]2 [F,C]2 | [G,C] [G,E]3 [G,D]2 [G,D]2 | [C,C]8 |] %23
V:4
 x8 | x8 | G,>G, G,>G, x4 | x4 G,4 | x8 | x8 | x8 | G,2 G,2 x3/2 || x5/2 | x8 | x8 | x6 G,>G, | %12
 x8 | x8 | x8 | x8 | x8 | x8 | x8 | x8 | x8 | x8 | x8 |] %23

